symbols/web/quiz/materialsymbolsrounded/quiz_wght600gradN25_48px.svg

<svg xmlns="http://www.w3.org/2000/svg" height="48" width="48"><path d="M27.55 24.3q.4 0 .775-.3t.525-.8q.2-.7.55-1.275.35-.575 1.25-1.375 1.3-1.25 1.825-2.225Q33 17.35 33 16.05q0-2.3-1.55-3.725-1.55-1.425-4.1-1.425-1.6 0-2.925.725-1.325.725-2.075 2.025-.3.4-.075.875.225.475.675.675.4.2.9.05.5-.15.8-.6.55-.75 1.2-1.125.65-.375 1.5-.375 1.55 0 2.475.825t.925 2.125q0 1-.475 1.75t-1.575 1.6q-1.2 1.1-1.65 1.85-.45.75-.6 1.9-.05.45.275.775t.825.325Zm.05 5.85q.8 0 1.4-.6.6-.6.6-1.4 0-.85-.6-1.425-.6-.575-1.4-.575-.85 0-1.425.575-.575.575-.575 1.425 0 .8.575 1.4.575.6 1.425.6Zm-14 8.1q-1.55 0-2.7-1.15-1.15-1.15-1.15-2.7V6.9q0-1.6 1.15-2.725t2.7-1.125h27.5q1.6 0 2.725 1.125T44.95 6.9v27.5q0 1.55-1.125 2.7-1.125 1.15-2.725 1.15Zm0-3.85h27.5V6.9H13.6v27.5ZM6.9 44.95q-1.6 0-2.725-1.125T3.05 41.1V11.7q0-.8.55-1.375T5 9.75q.8 0 1.35.575T6.9 11.7v29.4h29.4q.8 0 1.375.575t.575 1.375q0 .8-.575 1.35t-1.375.55ZM13.6 6.9v27.5V6.9Z"/></svg>

<svg xmlns="http://www.w3.org/2000/svg" height="48" width="48"><path d="M27.55 24.3Q27.95 24.3 28.325 24Q28.7 23.7 28.85 23.2Q29.05 22.5 29.4 21.925Q29.75 21.35 30.65 20.55Q31.95 19.3 32.475 18.325Q33 17.35 33 16.05Q33 13.75 31.45 12.325Q29.9 10.9 27.35 10.9Q25.75 10.9 24.425 11.625Q23.1 12.35 22.35 13.65Q22.05 14.05 22.275 14.525Q22.5 15 22.95 15.2Q23.35 15.4 23.85 15.25Q24.35 15.1 24.65 14.65Q25.2 13.9 25.85 13.525Q26.5 13.15 27.35 13.15Q28.9 13.15 29.825 13.975Q30.75 14.8 30.75 16.1Q30.75 17.1 30.275 17.85Q29.8 18.6 28.7 19.45Q27.5 20.55 27.05 21.3Q26.6 22.05 26.45 23.2Q26.4 23.65 26.725 23.975Q27.05 24.3 27.55 24.3ZM27.6 30.15Q28.4 30.15 29 29.55Q29.6 28.95 29.6 28.15Q29.6 27.3 29 26.725Q28.4 26.15 27.6 26.15Q26.75 26.15 26.175 26.725Q25.6 27.3 25.6 28.15Q25.6 28.95 26.175 29.55Q26.75 30.15 27.6 30.15ZM13.6 38.25Q12.05 38.25 10.9 37.1Q9.75 35.95 9.75 34.4V6.9Q9.75 5.3 10.9 4.175Q12.05 3.05 13.6 3.05H41.1Q42.7 3.05 43.825 4.175Q44.95 5.3 44.95 6.9V34.4Q44.95 35.95 43.825 37.1Q42.7 38.25 41.1 38.25ZM13.6 34.4H41.1Q41.1 34.4 41.1 34.4Q41.1 34.4 41.1 34.4V6.9Q41.1 6.9 41.1 6.9Q41.1 6.9 41.1 6.9H13.6Q13.6 6.9 13.6 6.9Q13.6 6.9 13.6 6.9V34.4Q13.6 34.4 13.6 34.4Q13.6 34.4 13.6 34.4ZM6.9 44.95Q5.3 44.95 4.175 43.825Q3.05 42.7 3.05 41.1V11.7Q3.05 10.9 3.6 10.325Q4.15 9.75 5 9.75Q5.8 9.75 6.35 10.325Q6.9 10.9 6.9 11.7V41.1Q6.9 41.1 6.9 41.1Q6.9 41.1 6.9 41.1H36.3Q37.1 41.1 37.675 41.675Q38.25 42.25 38.25 43.05Q38.25 43.85 37.675 44.4Q37.1 44.95 36.3 44.95ZM13.6 6.9Q13.6 6.9 13.6 6.9Q13.6 6.9 13.6 6.9V34.4Q13.6 34.4 13.6 34.4Q13.6 34.4 13.6 34.4Q13.6 34.4 13.6 34.4Q13.6 34.4 13.6 34.4V6.9Q13.6 6.9 13.6 6.9Q13.6 6.9 13.6 6.9Z"/></svg>
